X: 140048
M: 6/8
L: 1/8
K: G
vB/A/ |\
|: G/B/ |\
d3 e3 | d>ed dBG | cdc BdB | A>GA BGE |\
d3 B3 | {B}AGA Bge | dBd gdB | G>AG G2 :|


